!!!OTL: 356. Treue Liebe.
!!!ODT: 18 Jahrh.
!!!ARE: Europa, Mitteleuropa, Deutschland, Baden
!!!SCT: B0356
!!!TXL: @@DE
!!!YEM: Copyright 1995, estate of Helmut Schaffrath.
**kern	**text
*ICvox	*
*Ivox	*
*clefG2	*
*M3/4	*
*k[f#c#]	*
*D:	*
=1	=1
!LO:TX:a:t=Mäßig bewegt.	!
{4.a	Ach,
8b/	wie
8aL	iſt's
8gJ	.
=2	=2
(4gqq	.
4f#)	mög-
4f#	-lich
4f#}	dann,
=3	=3
{4.f#	daß
8g	ich
8f#L	dich
8eJ	.
=4	=4
(8eqq	.
4d)	laſ-
4d	-ſen
4d}	kann!
=5	=5
{4e	Hab'
4e	dich
4e	von
=6	=6
4.f#	Her-
8g	-ʒen
4a}	lieb,
=7	=7
{4a	das
8b/L	glau-
8aJ	.
8gL	-be
8f#J	.
=8	=8
(4f#qq	.
2e)	mir!
4r}	.
=9	=9
{4a	Du
4a	haſt
4a	das
=10	=10
4.b	Her-
8cc#	-ʒe
8ddL	mein
8bJ}	.
=11	=11
{4a	ſo
8aL	ganʒ
8bJ	.
8aL	ge-
8gJ	.
=12	=12
8f#L	-nom-
8gJ	.
8f#L	-men
8gJ	.
4f#}	ein,
=13	=13
{4d	daß
4f#	ich
4a	kein'
=14	=14
8aL	an-
8gJ	.
8eL	-dre
8gJ	.
4f#}	mehr
=15	=15
{(4a	lie-
8bL)	-ben
8gJ	kann.
8eL	.
8c#J	ſo
=16	=16
(4eqq	.
2d)	ſehr.
4r}	.
==	==
!!!AGN: Liebes - Lied, Liebes - Lust, Treue
!!!GTL: Liebeslieder - Liebeslust
!!!ONB: ESAC (Essen Associative Code) Database: BOEHME
!!!AMT: simple triple
!!!AIN: vox
!!!EED: Helmut Schaffrath
!!!EEV: 1.0
!!Alte Mel. a. d. 18. Jahrh. , handſchriftl. 1830.
!!@@COMMENT:"Text aus einem geſchriebenen Liederbuch vom Jahr 1769 (S. 350) im Beſitʒ von Herrn Curt
!!Mündel in Straßburg. Die Liederhdſchr. ſtammt aus Baden und wurde vermuthlich von einem
!!Studenten geſchrieben, der u. A. auch in Leipʒig geweſen war.[...]"
!!@@END:
!!!URL-scan: https://archive.org/details/BoehmeVtLieder1895/page/n297/mode/2up
!!!ENC: Anna Maria Matuszewska
!!!EEV: 2024/05/07
*-	*-
